Sources/FrostedUI/Resources/Icons.xcassets/parachute32.imageset/parachute-32.svg

<svg width="32" height="32" viewBox="0 0 32 32" fill="none" xmlns="http://www.w3.org/2000/svg" data-fui-icon="true">
  <path
    d="M16.0004 1C19.5601 1.00007 22.3115 1.94614 24.4222 3.39746C26.5258 4.84401 27.9543 6.76453 28.9222 8.6582C29.8894 10.5505 30.4066 12.435 30.683 13.8398C30.8214 14.5436 30.9003 15.1318 30.9447 15.5469C30.9669 15.7545 30.9805 15.9197 30.9886 16.0342C30.9927 16.0911 30.9957 16.1357 30.9974 16.167C30.9983 16.1826 30.999 16.1953 30.9994 16.2041V16.2197C30.9951 16.2203 30.94 16.2227 30.2504 16.25L30.9994 16.2207C31.0072 16.4206 30.9346 16.6154 30.7982 16.7617L23.9838 24.0615C23.9931 24.1231 24.0004 24.1858 24.0004 24.25V28.8604C24.0002 30.0418 23.0421 30.9996 21.8607 31H10.14C8.95841 30.9998 8.00056 30.042 8.00037 28.8604V24.25C8.00037 24.1859 8.00667 24.1231 8.01599 24.0615L1.20251 16.7617C1.06597 16.6154 0.993522 16.4207 1.00134 16.2207L1.75037 16.25C1.07666 16.2234 1.0082 16.2204 1.00134 16.2197V16.2041C1.00176 16.1952 1.00244 16.1826 1.0033 16.167C1.00501 16.1357 1.00804 16.0911 1.01208 16.0342C1.02021 15.9197 1.03383 15.7545 1.05603 15.5469C1.10041 15.1318 1.17929 14.5437 1.31775 13.8398C1.59414 12.435 2.11126 10.5505 3.07849 8.6582C4.04651 6.7645 5.4748 4.84399 7.57849 3.39746C9.68929 1.9462 12.4406 1 16.0004 1ZM9.50037 28.8604C9.50056 29.2135 9.78683 29.4998 10.14 29.5H21.8607C22.2137 29.4996 22.5002 29.2134 22.5004 28.8604V24.5H9.50037V28.8604ZM8.87537 13.5C6.55172 13.5 4.92585 14.3059 3.8822 15.0977C3.35753 15.4957 2.97772 15.8927 2.73181 16.1855C2.72934 16.1885 2.72645 16.1914 2.724 16.1943L9.0863 23.0117C9.13991 23.0047 9.19485 23 9.25037 23H15.2504V16.4814C15.1949 16.4051 15.1182 16.3038 15.0189 16.1855C14.7731 15.8927 14.3932 15.4958 13.8685 15.0977C12.8249 14.3059 11.199 13.5001 8.87537 13.5ZM23.1254 13.5C20.8017 13.5 19.1758 14.3059 18.1322 15.0977C17.6075 15.4957 17.2277 15.8927 16.9818 16.1855C16.8826 16.3038 16.8058 16.405 16.7504 16.4814V23H22.7504C22.8056 23 22.8602 23.0048 22.9135 23.0117L29.2758 16.1943C29.2734 16.1916 29.2712 16.1883 29.2689 16.1855C29.0231 15.8927 28.6432 15.4958 28.1185 15.0977C27.0749 14.3059 25.4489 13.5001 23.1254 13.5ZM16.0004 2.5C12.7221 2.5 10.2723 3.36655 8.42908 4.63379C6.57904 5.90584 5.29926 7.61077 4.41443 9.3418C3.55052 11.032 3.07181 12.7304 2.80896 14.0322C2.8631 13.9891 2.91906 13.9455 2.97595 13.9023C4.23891 12.9443 6.17593 12 8.87537 12C11.5748 12.0001 13.5119 12.9443 14.7748 13.9023C15.2978 14.2992 15.7031 14.6985 16.0004 15.0303C16.2977 14.6985 16.7029 14.2992 17.226 13.9023C18.4889 12.9443 20.426 12 23.1254 12C25.8247 12.0001 27.7619 12.9443 29.0248 13.9023C29.0815 13.9454 29.1368 13.9893 29.1908 14.0322C28.928 12.7305 28.4501 11.0319 27.5863 9.3418C26.7015 7.6108 25.4216 5.90586 23.5717 4.63379C21.7285 3.3665 19.2786 2.50007 16.0004 2.5Z"
    fill="currentColor"
  />
</svg>

<svg xmlns="http://www.w3.org/2000/svg" width="32" height="32" fill="none" data-fui-icon="true" viewBox="0 0 32 32"><path fill="currentColor" d="M16 1c3.56 0 6.311.946 8.422 2.397 2.104 1.447 3.532 3.368 4.5 5.261.967 1.893 1.485 3.777 1.761 5.182.138.704.217 1.292.262 1.707a14 14 0 0 1 .054.657v.016l-.749.03.75-.03a.75.75 0 0 1-.202.542l-6.814 7.3q.016.092.016.188v4.61A2.14 2.14 0 0 1 21.86 31H10.14A2.14 2.14 0 0 1 8 28.86v-4.61q.001-.096.016-.189l-6.813-7.3a.75.75 0 0 1-.202-.54l.75.029-.75-.03v-.016l.011-.17c.008-.114.022-.28.044-.487.044-.415.123-1.003.262-1.707.276-1.405.793-3.29 1.76-5.182.969-1.893 2.397-3.814 4.5-5.26C9.69 1.945 12.441 1 16 1M9.5 28.86c0 .354.287.64.64.64h11.72a.64.64 0 0 0 .64-.64V24.5h-13zM8.875 13.5c-2.323 0-3.95.806-4.993 1.598a7.2 7.2 0 0 0-1.15 1.088l-.008.008 6.362 6.818Q9.167 23 9.25 23h6v-6.519a5 5 0 0 0-.231-.296 7 7 0 0 0-1.15-1.087c-1.044-.792-2.67-1.598-4.994-1.598m14.25 0c-2.323 0-3.95.806-4.993 1.598a7 7 0 0 0-1.15 1.088c-.1.118-.176.219-.232.295V23h6q.084 0 .163.012l6.363-6.818-.007-.008a7 7 0 0 0-1.15-1.088c-1.044-.792-2.67-1.598-4.994-1.598M16 2.5c-3.278 0-5.728.867-7.57 2.134C6.578 5.906 5.3 7.61 4.413 9.342c-.863 1.69-1.342 3.388-1.605 4.69l.167-.13c1.263-.958 3.2-1.902 5.9-1.902 2.699 0 4.636.944 5.899 1.902.523.397.928.797 1.225 1.128a8.8 8.8 0 0 1 1.226-1.128c1.263-.958 3.2-1.902 5.9-1.902 2.699 0 4.636.944 5.899 1.902l.166.13c-.263-1.302-.74-3-1.605-4.69-.884-1.731-2.164-3.436-4.014-4.708C21.729 3.366 19.279 2.5 16 2.5"/></svg>
